polaris-icons/icons/PayoutsBlockedMinor.svg

<svg viewBox="0 0 20 20" fill="none" xmlns="http://www.w3.org/2000/svg">
<path fill-rule="evenodd" d="M17.7732 3.32163C18.0756 3.01929 18.0756 2.5291 17.7732 2.22676C17.4709 1.92441 16.9807 1.92441 16.6784 2.22676L2.22676 16.6784C1.92442 16.9807 1.92442 17.4709 2.22676 17.7732C2.5291 18.0756 3.01929 18.0756 3.32163 17.7732L5.09487 16C5.10358 16 5.11232 16 5.12108 16H12.3789C12.7743 16 13.1153 16 13.3963 15.9771C13.6928 15.9529 13.9877 15.8994 14.2715 15.7548C14.6948 15.5391 15.0391 15.1948 15.2548 14.7715C15.3994 14.4877 15.4529 14.1928 15.4771 13.8963C15.4977 13.6434 15.4998 13.3418 15.5 12.9958C15.6429 12.9926 15.7752 12.987 15.8963 12.9771C16.1928 12.9529 16.4877 12.8994 16.7715 12.7548C17.1948 12.5391 17.5391 12.1948 17.7548 11.7715C17.8994 11.4877 17.9529 11.1928 17.9771 10.8963C18 10.6153 18 10.2743 18 9.87893V7.12108C18 6.72572 18 6.38466 17.9771 6.10373C17.9529 5.80722 17.8994 5.51231 17.7548 5.22852C17.5478 4.82237 17.2226 4.48906 16.8227 4.27217L17.7732 3.32163ZM15.5876 5.50731L13.9704 7.12443C14.0719 7.15534 14.1724 7.19473 14.2715 7.24524C14.6948 7.46095 15.0391 7.80516 15.2548 8.22852C15.3994 8.51231 15.4529 8.80722 15.4771 9.10373C15.5 9.38466 15.5 9.72572 15.5 10.1211V11.4954C15.604 11.4928 15.6938 11.4886 15.7741 11.4821C15.9779 11.4654 16.0534 11.4372 16.0905 11.4183C16.2316 11.3464 16.3464 11.2316 16.4183 11.0905C16.4372 11.0534 16.4654 10.9779 16.4821 10.7741C16.4994 10.5616 16.5 10.2824 16.5 9.85V7.15C16.5 6.71759 16.4994 6.43838 16.4821 6.22588C16.4654 6.02213 16.4372 5.94659 16.4183 5.90951C16.3464 5.76839 16.2316 5.65365 16.0905 5.58175C16.0534 5.56285 15.9779 5.5346 15.7741 5.51795C15.7173 5.5133 15.6556 5.50986 15.5876 5.50731ZM11.4761 9.6188L12.5947 8.50021C12.8928 8.50093 13.1047 8.5041 13.2741 8.51795C13.4779 8.5346 13.5534 8.56285 13.5905 8.58175C13.7316 8.65365 13.8464 8.76839 13.9183 8.90951C13.9372 8.94659 13.9654 9.02213 13.9821 9.22588C13.9994 9.43838 14 9.71759 14 10.15V12.85C14 13.2824 13.9994 13.5616 13.9821 13.7741C13.9654 13.9779 13.9372 14.0534 13.9183 14.0905C13.8464 14.2316 13.7316 14.3464 13.5905 14.4183C13.5534 14.4372 13.4779 14.4654 13.2741 14.4821C13.0616 14.4994 12.7824 14.5 12.35 14.5H10.9861C11.4611 13.7039 11.75 12.6525 11.75 11.5C11.75 10.8284 11.6519 10.1912 11.4761 9.6188ZM10.2138 10.8811L7.65047 13.4444C7.72005 13.5934 7.79618 13.7291 7.87676 13.8499C8.24087 14.3961 8.57915 14.5 8.75 14.5C8.92086 14.5 9.25914 14.3961 9.62325 13.8499C9.98037 13.3143 10.25 12.4878 10.25 11.5C10.25 11.2857 10.2373 11.0789 10.2138 10.8811Z" fill="#4A4A4A"/>
<path d="M7.8711 4H12.9051L11.4051 5.5H7.9C7.46759 5.5 7.18839 5.50059 6.97588 5.51795C6.77213 5.5346 6.69659 5.56285 6.65951 5.58175C6.51839 5.65365 6.40366 5.76839 6.33175 5.90951C6.31286 5.94659 6.2846 6.02213 6.26795 6.22588C6.25268 6.41274 6.25039 6.65117 6.25006 7H9.90512L5.75915 11.146C5.81171 10.1328 6.08796 9.21383 6.5139 8.5H5.15C4.71759 8.5 4.43838 8.50059 4.22588 8.51795C4.02213 8.5346 3.94659 8.56285 3.90951 8.58175C3.76839 8.65365 3.65365 8.76839 3.58175 8.90951C3.56285 8.94659 3.5346 9.02213 3.51795 9.22588C3.50059 9.43838 3.5 9.71759 3.5 10.15V12.85C3.5 13.0701 3.50016 13.2504 3.50259 13.4025L2.20904 14.6961C2.09143 14.4356 2.04502 14.1666 2.02293 13.8963C1.99998 13.6154 1.99999 13.2743 2 12.879V10.121C1.99999 9.72574 1.99998 9.38463 2.02293 9.10373C2.04716 8.80722 2.10064 8.51231 2.24524 8.22852C2.46095 7.80516 2.80516 7.46095 3.22853 7.24524C3.51231 7.10064 3.80722 7.04716 4.10373 7.02293C4.29258 7.0075 4.5086 7.00245 4.75002 7.0008C4.75023 6.65619 4.75234 6.35576 4.77293 6.10373C4.79716 5.80722 4.85064 5.51231 4.99524 5.22852C5.21096 4.80516 5.55516 4.46095 5.97853 4.24524C6.26231 4.10064 6.55722 4.04716 6.85373 4.02293C7.13464 3.99998 7.47578 3.99999 7.8711 4Z" fill="#4A4A4A"/>
</svg>

<svg viewBox="0 0 20 20" xmlns="http://www.w3.org/2000/svg"><path fill-rule="evenodd" d="M17.773 3.322a.774.774 0 1 0-1.095-1.095l-14.451 14.451a.774.774 0 1 0 1.095 1.095l1.773-1.773h7.284c.395 0 .736 0 1.017-.023.297-.024.592-.078.875-.222a2.25 2.25 0 0 0 .984-.984c.144-.283.198-.578.222-.875.02-.253.023-.554.023-.9.143-.003.275-.009.396-.019.297-.024.592-.078.875-.222a2.25 2.25 0 0 0 .984-.984c.144-.283.198-.578.222-.875.023-.28.023-.622.023-1.017v-2.758c0-.395 0-.736-.023-1.017-.024-.297-.078-.592-.222-.875a2.25 2.25 0 0 0-.932-.957l.95-.95Zm-2.185 2.185-1.618 1.617c.102.031.202.07.301.121.424.216.768.56.984.984.144.283.198.578.222.875.023.28.023.622.023 1.017v1.374c.104-.002.194-.006.274-.013.204-.017.28-.045.316-.064a.75.75 0 0 0 .328-.327c.02-.038.047-.113.064-.317.017-.212.018-.492.018-.924v-2.7c0-.432 0-.712-.018-.924-.017-.204-.045-.28-.064-.316a.75.75 0 0 0-.328-.328c-.037-.02-.112-.047-.316-.064a4.246 4.246 0 0 0-.186-.01Zm-4.112 4.112 1.119-1.119c.298 0 .51.004.68.018.203.017.278.045.316.064a.75.75 0 0 1 .327.328c.02.037.047.112.064.316.017.212.018.492.018.924v2.7c0 .432 0 .712-.018.924-.017.204-.045.28-.064.317a.75.75 0 0 1-.327.327c-.038.02-.113.047-.317.064-.212.017-.492.018-.924.018h-1.364c.475-.796.764-1.848.764-3 0-.672-.098-1.309-.274-1.881Zm-1.262 1.262-2.564 2.563c.07.15.146.285.227.406.364.546.702.65.873.65.17 0 .51-.104.873-.65.357-.536.627-1.362.627-2.35 0-.214-.013-.421-.036-.619Z" fill="#5C5F62"/><path d="M7.871 4h5.034l-1.5 1.5h-3.505c-.432 0-.712 0-.924.018-.204.017-.28.045-.316.064a.75.75 0 0 0-.328.328c-.02.037-.047.112-.064.316-.015.187-.018.425-.018.774h3.655l-4.146 4.146c.053-1.013.329-1.932.755-2.646h-1.364c-.432 0-.712 0-.924.018-.204.017-.28.045-.316.064a.75.75 0 0 0-.328.328c-.02.037-.047.112-.064.316-.017.212-.018.492-.018.924v2.7c0 .22 0 .4.003.553l-1.294 1.293a2.377 2.377 0 0 1-.186-.8c-.023-.28-.023-.622-.023-1.017v-2.758c0-.395 0-.736.023-1.017.024-.297.078-.592.222-.875a2.25 2.25 0 0 1 .984-.984c.283-.144.578-.198.875-.222.189-.015.405-.02.646-.022 0-.345.002-.645.023-.897.024-.297.078-.592.222-.875a2.25 2.25 0 0 1 .984-.984c.283-.144.578-.198.875-.222.28-.023.622-.023 1.017-.023Z" fill="#5C5F62"/></svg>
